X:57
T:13. Gaillarde
C:Tielman Susato
B:Tielman Susato: "Danserye" (1551) no. 57
R:Galliard
Z:Transcribed by Frank Nordberg - http://www.musicaviva.com
F:http://abc.musicaviva.com/tunes/susato-tielman/susato-1551-57/susato-1551-57-4m.abc
M:3/2
L:1/2
K:Gmix
V:1
AAA|A2F|AAA|A2F|AAA|c2B|A2^G|A2z:|
|:ddd|d2_B|ddd|d2_B|ddd|f2e|d2^c|d2z:|
|:d2c-|cBA|B2A|GA2|GFG-|GFD|G2^F|G2z:|
V:2
EFF|E2D|EFF|E2D|DFF|E>^FG|EE2|^C2z:|
|:A_B_B|A2G|A_B_B|A2G-|G/A/_B_B|A>Bc|AA2|^F2z:|
|:GFA-|AGE|G2F|DF2|ECE-|EDD|CD2|D2z:|
V:3
CA,D-|D^CD|CA,D-|D^CD|F>ED|C/D/E/C/D/C/|B,/A,/B,2|A,2z:|
|:FDG-|G^FG|FDG-|G^FG|_B>AG|F/G/A/F/G/F/|E/D/E2|D2z:|
|:DDE|FDC|DEC|B,CD|B,A,B,|CA,B,|G,A,2|B,2z:|
V:4
A,F,D,|A,2D,|A,F,D,|A,2D,|D,D,/E,/F,/G,/|A,2G,|A,E,2|A,2D,:|
|:D_B,G,|D2G,|D_B,G,|D2G,|G,G,/A,/_B,/C/|D2C|DA,2|D,2z:|
|:G,_B,A,|F,G,A,|G,E,F,|G,F,D,|E,F,E,|C,D,G,|E,D,2|G,2z:|
W:
W:
W:  From Musica Viva - http://www.musicaviva.com
W:  the Internet center for free sheet music downloads.
